source/img/sprite/routes-icon.svg

<svg width="24" height="24" viewBox="0 0 24 24" fill="none" xmlns="http://www.w3.org/2000/svg">
<g clip-path="url(#clip0_12170_694)">
<path d="M19.7921 9.56438H13.948C12.119 9.56438 10.6363 11.058 10.6363 12.9005C10.6363 14.743 12.119 16.2367 13.948 16.2367H16.4804C18.3094 16.2367 19.7921 17.7303 19.7921 19.5728C19.7921 21.4154 18.3094 22.909 16.4804 22.909H4.2077M7.32459 17.3783C7.32459 15.6442 5.92911 14.2384 4.2077 14.2384C2.4863 14.2384 1.09082 15.6442 1.09082 17.3783V17.4963C1.09082 18.1849 1.30737 18.8557 1.70938 19.4126L4.20155 22.8646C4.20459 22.8688 4.21082 22.8688 4.21386 22.8646L6.70603 19.4126C7.10804 18.8557 7.32459 18.1849 7.32459 17.4963V17.3783ZM4.81024 16.0858L4.82895 16.0947C5.20619 16.2744 5.48122 16.618 5.57568 17.0275C5.67119 17.4415 5.56854 17.8804 5.30257 18.2104C5.03952 18.5367 4.64156 18.7298 4.22426 18.7298H4.19115C3.77384 18.7298 3.37588 18.5367 3.11284 18.2104C2.84686 17.8804 2.74421 17.4415 2.83972 17.0275C2.93419 16.618 3.20922 16.2744 3.58646 16.0947L3.60516 16.0858C3.9866 15.904 4.42881 15.904 4.81024 16.0858ZM22.909 4.2528C22.909 2.51868 21.5135 1.09082 19.7921 1.09082C18.0707 1.09082 16.6752 2.51868 16.6752 4.2528C16.6752 4.93451 16.8934 5.60544 17.2974 6.15233L19.786 9.52099C19.789 9.52515 19.7952 9.52515 19.7983 9.52099L22.2868 6.15233C22.6908 5.60544 22.909 4.93451 22.909 4.2528ZM20.3862 2.8923L20.4285 2.912C20.796 3.08312 21.0652 3.41466 21.1589 3.81144C21.255 4.2184 21.1553 4.64717 20.89 4.96891L20.8767 4.98505C20.618 5.29873 20.2341 5.48019 19.8293 5.48019H19.755C19.3501 5.48019 18.9663 5.29873 18.7076 4.98505L18.6943 4.96891C18.4289 4.64717 18.3293 4.2184 18.4253 3.81144C18.519 3.41466 18.7882 3.08312 19.1557 2.912L19.198 2.8923C19.5749 2.7168 20.0093 2.7168 20.3862 2.8923Z" stroke="#0266C1" stroke-linecap="round"/>
</g>
<defs>
<clipPath id="clip0_12170_694">
<rect width="24" height="24" fill="white"/>
</clipPath>
</defs>
</svg>

<svg viewBox="0 0 24 24" fill="none" xmlns="http://www.w3.org/2000/svg"><g clip-path="url(#a)"><path d="M19.8 9.56h-5.85a3.32 3.32 0 0 0-3.31 3.34 3.32 3.32 0 0 0 3.3 3.34h2.54a3.32 3.32 0 0 1 3.31 3.33 3.32 3.32 0 0 1-3.31 3.34h-12.27m3.11-5.53c0-1.74-1.4-3.14-3.11-3.14a3.13 3.13 0 0 0-3.12 3.14v.12c0 .68.22 1.36.62 1.91l2.5 3.45s0 0 0 0l2.5-3.45c.4-.55.61-1.23.61-1.91v-.12Zm-2.51-1.3.02.01a1.37 1.37 0 0 1 .47 2.12 1.4 1.4 0 0 1-1.08.52h-.03a1.4 1.4 0 0 1-.6-2.64h.02a1.4 1.4 0 0 1 1.2 0Zm18.1-11.83c0-1.73-1.4-3.16-3.12-3.16a3.15 3.15 0 0 0-3.11 3.16c0 .68.21 1.36.62 1.9l2.49 3.37s0 0 0 0l2.5-3.37c.4-.54.62-1.22.62-1.9Zm-2.52-1.36.04.02a1.33 1.33 0 0 1 .46 2.06l-.01.02c-.26.3-.65.49-1.05.49h-.07c-.41 0-.8-.18-1.05-.5l-.02-.01a1.34 1.34 0 0 1 .47-2.06l.04-.02a1.4 1.4 0 0 1 1.19 0Z" stroke="#0266C1" stroke-linecap="round"/></g><defs><clipPath id="a"><path fill="#fff" d="M0 0h24v24h-24z"/></clipPath></defs></svg>
